X: 1587
T: Angus Young's
R: strathspey
M: 4/4
K: Adorian
|:c>A (3AAA c<Ae>A|c>A (3AAA d>BG<B|
c>A (3AAA a2 e>f|g<GB>c d>BG>B:|
K:AMix
|:c<ee>f e<c a2|c<e (3eee d>BG<B|
c>e (3eee a>e (3eee|g<GB>c d>BG>B:|A6 z2||

